icons/vscode-16.svg

<svg width="16" height="16" viewBox="0 0 16 16" fill="none" xmlns="http://www.w3.org/2000/svg">
<path d="M12.5149 0.537348C13.6837 -0.677507 15.9947 0.310797 15.9333 2.07146C15.9781 5.05194 16 8.03284 16 11.0133C16 11.8786 15.9987 12.7438 15.9954 13.6091C16.0837 15.5472 13.5561 16.7584 12.1676 15.4601C8.99894 12.7594 5.85511 10.0266 2.73671 7.2629C2.2612 6.84149 1.7864 6.41917 1.31207 5.99628C1.13805 5.84108 1.02577 5.62367 1.00391 5.38711C0.982091 5.15047 1.05219 4.9149 1.19824 4.73199C1.34427 4.54923 1.55523 4.4329 1.78579 4.40797C2.01648 4.383 2.24673 4.45239 2.4297 4.5965C2.92802 4.9891 3.42618 5.38187 3.92333 5.77595C7.1843 8.36078 10.4206 10.9778 13.6313 13.6256C13.639 13.6371 13.6669 13.6077 13.6498 13.6091C13.6464 12.7438 13.6451 11.8786 13.6451 11.0133C13.6451 8.13652 13.6656 5.25933 13.7072 2.38252C12.3986 3.54014 11.0772 4.65813 9.7806 5.79362C9.30366 6.21038 8.83285 6.62549 8.35709 7.04733C8.18267 7.20185 7.95629 7.28445 7.72465 7.27352C7.49317 7.26258 7.27609 7.15946 7.11986 6.98603C6.9636 6.81253 6.88085 6.58242 6.88874 6.34504C6.89663 6.1076 6.99467 5.88284 7.15896 5.71703C7.61131 5.26092 8.06132 4.8125 8.51918 4.3632C9.84347 3.06081 11.1963 1.80549 12.5149 0.537348Z" fill="black"/>
<path d="M2.9864 9.73443C3.32861 9.40002 3.85838 9.42642 4.16952 9.79419C4.48062 10.1619 4.45493 10.7313 4.11282 11.0657L2.88499 12.2657C2.54287 12.6 2.01305 12.5735 1.70187 12.2059C1.39081 11.8382 1.41553 11.2689 1.75748 10.9345L2.9864 9.73443Z" fill="black"/>
</svg>

<svg xmlns="http://www.w3.org/2000/svg" width="16" height="16" viewBox="0 0 16 16"><path d="M12.515.537c1.169-1.215 3.48-.226 3.418 1.534a592.449 592.449 0 0 1 .062 11.538c.089 1.938-2.439 3.149-3.827 1.851A642.497 642.497 0 0 1 1.312 5.996a.932.932 0 0 1-.308-.609.915.915 0 0 1 .194-.655.871.871 0 0 1 1.232-.136l1.493 1.18a641.007 641.007 0 0 1 9.708 7.85c.008.011.036-.018.019-.017a605.558 605.558 0 0 1 .057-11.226c-1.308 1.157-2.63 2.275-3.926 3.411-.477.416-.948.831-1.424 1.253a.87.87 0 0 1-1.237-.061.912.912 0 0 1-.231-.641.941.941 0 0 1 .27-.628c.452-.456.902-.905 1.36-1.354 1.324-1.302 2.677-2.558 3.996-3.826ZM2.986 9.734a.798.798 0 0 1 1.184.06.95.95 0 0 1-.057 1.272l-1.228 1.2a.798.798 0 0 1-1.183-.06.95.95 0 0 1 .055-1.272l1.229-1.2Z"/></svg>
